images/mUSO.svg

<svg height="250" viewBox="0 0 250 250" width="250" xmlns="http://www.w3.org/2000/svg" xmlns:xlink="http://www.w3.org/1999/xlink"><symbol id="a" overflow="visible"><path d="m25.21875.703125c-6.773438 0-11.953125-1.648437-15.546875-4.953125-3.585937-3.300781-5.375-8.019531-5.375-14.15625v-30.734375h10.28125v29.921875c0 3.886719.921875 6.835938 2.765625 8.84375 1.851562 2.011719 4.570312 3.015625 8.15625 3.015625 3.664062 0 6.488281-1.050781 8.46875-3.15625 1.976562-2.101563 2.96875-5.117187 2.96875-9.046875v-29.578125h10.28125v30.203125c0 6.230469-1.929688 11.0625-5.78125 14.5-3.84375 3.429688-9.25 5.140625-16.21875 5.140625zm0 0"/></symbol><symbol id="b" overflow="visible"><path d="m44.84375-14.15625c0 4.8125-1.789062 8.496094-5.359375 11.046875-3.5625 2.542969-8.796875 3.8125-15.703125 3.8125-6.304688 0-11.246094-1.113281-14.828125-3.34375-3.574219-2.238281-5.871094-5.625-6.890625-10.15625l9.9375-1.640625c.675781 2.605469 1.988281 4.496094 3.9375 5.671875 1.945312 1.167969 4.65625 1.75 8.125 1.75 7.1875 0 10.78125-2.179687 10.78125-6.546875 0-1.394531-.417969-2.546875-1.25-3.453125-.824219-.90625-1.984375-1.660156-3.484375-2.265625-1.5-.601562-4.375-1.335938-8.625-2.203125-3.679687-.851563-6.242187-1.539063-7.6875-2.0625-1.4375-.53125-2.742187-1.148437-3.90625-1.859375-1.15625-.707031-2.140625-1.5625-2.953125-2.5625s-1.449219-2.171875-1.90625-3.515625c-.449219-1.351563-.671875-2.898437-.671875-4.640625 0-4.445312 1.664063-7.847656 5-10.203125 3.34375-2.363281 8.195313-3.546875 14.5625-3.546875 6.09375 0 10.664063.953125 13.71875 2.859375 3.0625 1.90625 5.035156 5.058594 5.921875 9.453125l-9.984375 1.359375c-.511719-2.113281-1.554687-3.703125-3.125-4.765625-1.5625-1.070312-3.808594-1.609375-6.734375-1.609375-6.230469 0-9.34375 1.953125-9.34375 5.859375 0 1.28125.328125 2.328125.984375 3.140625.664063.8125 1.648437 1.507813 2.953125 2.078125 1.300781.5625 3.9375 1.277344 7.90625 2.140625 4.71875 1 8.09375 1.929687 10.125 2.78125 2.039062.84375 3.65625 1.828125 4.84375 2.953125s2.09375 2.476562 2.71875 4.046875c.625 1.5625.9375 3.371094.9375 5.421875zm0 0"/></symbol><symbol id="c" overflow="visible"><path d="m52.5625-24.796875c0 5.117187-1.015625 9.617187-3.046875 13.5-2.023437 3.886719-4.917969 6.859375-8.6875 8.921875-3.761719 2.054688-8.152344 3.078125-13.171875 3.078125-7.71875 0-13.773438-2.269531-18.15625-6.8125-4.386719-4.550781-6.578125-10.78125-6.578125-18.6875 0-7.882813 2.1875-14.035156 6.5625-18.453125 4.375-4.414062 10.453125-6.625 18.234375-6.625 7.789062 0 13.878906 2.234375 18.265625 6.703125 4.382813 4.460937 6.578125 10.585937 6.578125 18.375zm-10.5 0c0-5.300781-1.257812-9.457031-3.765625-12.46875-2.511719-3.007813-6.039063-4.515625-10.578125-4.515625-4.605469 0-8.164062 1.496094-10.671875 4.484375-2.511719 2.992187-3.765625 7.15625-3.765625 12.5 0 5.398437 1.285156 9.648437 3.859375 12.75 2.570313 3.105469 6.078125 4.65625 10.515625 4.65625 4.601562 0 8.15625-1.507813 10.65625-4.53125 2.5-3.019531 3.75-7.3125 3.75-12.875zm0 0"/></symbol><path d="m250 125c0 69.035156-55.964844 125-125 125s-125-55.964844-125-125 55.964844-125 125-125 125 55.964844 125 125zm0 0" fill="#fff" fill-rule="evenodd"/><g fill="#121a2f"><use x="56.929688" xlink:href="#a" y="151.787388"/><use x="108.722377" xlink:href="#b" y="151.787388"/><use x="151.586496" xlink:href="#c" y="151.787388"/></g></svg>

<svg xmlns="http://www.w3.org/2000/svg" xmlns:xlink="http://www.w3.org/1999/xlink" width="250px" height="250px" viewBox="0 0 250 250" version="1.1">
<defs>
<g>
<symbol overflow="visible" id="glyph0-0">
<path style="stroke:none;" d="M 7.15625 -49.140625 L 46.375 -49.140625 L 46.375 0 L 7.15625 0 Z M 9.796875 -46.484375 L 9.796875 -2.65625 L 43.734375 -2.65625 L 43.734375 -46.484375 Z M 9.796875 -46.484375 "/>
</symbol>
<symbol overflow="visible" id="glyph0-1">
<path style="stroke:none;" d="M 25.21875 0.703125 C 18.445312 0.703125 13.265625 -0.945312 9.671875 -4.25 C 6.085938 -7.550781 4.296875 -12.269531 4.296875 -18.40625 L 4.296875 -49.140625 L 14.578125 -49.140625 L 14.578125 -19.21875 C 14.578125 -15.332031 15.5 -12.382812 17.34375 -10.375 C 19.195312 -8.363281 21.914062 -7.359375 25.5 -7.359375 C 29.164062 -7.359375 31.988281 -8.410156 33.96875 -10.515625 C 35.945312 -12.617188 36.9375 -15.632812 36.9375 -19.5625 L 36.9375 -49.140625 L 47.21875 -49.140625 L 47.21875 -18.9375 C 47.21875 -12.707031 45.289062 -7.875 41.4375 -4.4375 C 37.59375 -1.007812 32.1875 0.703125 25.21875 0.703125 Z M 25.21875 0.703125 "/>
</symbol>
<symbol overflow="visible" id="glyph0-2">
<path style="stroke:none;" d="M 44.84375 -14.15625 C 44.84375 -9.34375 43.054688 -5.660156 39.484375 -3.109375 C 35.921875 -0.566406 30.6875 0.703125 23.78125 0.703125 C 17.476562 0.703125 12.535156 -0.410156 8.953125 -2.640625 C 5.378906 -4.878906 3.082031 -8.265625 2.0625 -12.796875 L 12 -14.4375 C 12.675781 -11.832031 13.988281 -9.941406 15.9375 -8.765625 C 17.882812 -7.597656 20.59375 -7.015625 24.0625 -7.015625 C 31.25 -7.015625 34.84375 -9.195312 34.84375 -13.5625 C 34.84375 -14.957031 34.425781 -16.109375 33.59375 -17.015625 C 32.769531 -17.921875 31.609375 -18.675781 30.109375 -19.28125 C 28.609375 -19.882812 25.734375 -20.617188 21.484375 -21.484375 C 17.804688 -22.335938 15.242188 -23.023438 13.796875 -23.546875 C 12.359375 -24.078125 11.054688 -24.695312 9.890625 -25.40625 C 8.734375 -26.113281 7.75 -26.96875 6.9375 -27.96875 C 6.125 -28.96875 5.488281 -30.140625 5.03125 -31.484375 C 4.582031 -32.835938 4.359375 -34.382812 4.359375 -36.125 C 4.359375 -40.570312 6.023438 -43.972656 9.359375 -46.328125 C 12.703125 -48.691406 17.554688 -49.875 23.921875 -49.875 C 30.015625 -49.875 34.585938 -48.921875 37.640625 -47.015625 C 40.703125 -45.109375 42.675781 -41.957031 43.5625 -37.5625 L 33.578125 -36.203125 C 33.066406 -38.316406 32.023438 -39.90625 30.453125 -40.96875 C 28.890625 -42.039062 26.644531 -42.578125 23.71875 -42.578125 C 17.488281 -42.578125 14.375 -40.625 14.375 -36.71875 C 14.375 -35.4375 14.703125 -34.390625 15.359375 -33.578125 C 16.023438 -32.765625 17.007812 -32.070312 18.3125 -31.5 C 19.613281 -30.9375 22.25 -30.222656 26.21875 -29.359375 C 30.9375 -28.359375 34.3125 -27.429688 36.34375 -26.578125 C 38.382812 -25.734375 40 -24.75 41.1875 -23.625 C 42.375 -22.5 43.28125 -21.148438 43.90625 -19.578125 C 44.53125 -18.015625 44.84375 -16.207031 44.84375 -14.15625 Z M 44.84375 -14.15625 "/>
</symbol>
<symbol overflow="visible" id="glyph0-3">
<path style="stroke:none;" d="M 52.5625 -24.796875 C 52.5625 -19.679688 51.546875 -15.179688 49.515625 -11.296875 C 47.492188 -7.410156 44.597656 -4.4375 40.828125 -2.375 C 37.066406 -0.320312 32.675781 0.703125 27.65625 0.703125 C 19.9375 0.703125 13.882812 -1.566406 9.5 -6.109375 C 5.113281 -10.660156 2.921875 -16.890625 2.921875 -24.796875 C 2.921875 -32.679688 5.109375 -38.832031 9.484375 -43.25 C 13.859375 -47.664062 19.9375 -49.875 27.71875 -49.875 C 35.507812 -49.875 41.597656 -47.640625 45.984375 -43.171875 C 50.367188 -38.710938 52.5625 -32.585938 52.5625 -24.796875 Z M 42.0625 -24.796875 C 42.0625 -30.097656 40.804688 -34.253906 38.296875 -37.265625 C 35.785156 -40.273438 32.257812 -41.78125 27.71875 -41.78125 C 23.113281 -41.78125 19.554688 -40.285156 17.046875 -37.296875 C 14.535156 -34.304688 13.28125 -30.140625 13.28125 -24.796875 C 13.28125 -19.398438 14.566406 -15.148438 17.140625 -12.046875 C 19.710938 -8.941406 23.21875 -7.390625 27.65625 -7.390625 C 32.257812 -7.390625 35.8125 -8.898438 38.3125 -11.921875 C 40.8125 -14.941406 42.0625 -19.234375 42.0625 -24.796875 Z M 42.0625 -24.796875 "/>
</symbol>
</g>
</defs>
<g id="surface1">
<path style=" stroke:none;fill-rule:evenodd;fill:rgb(100%,100%,100%);fill-opacity:1;" d="M 250 125 C 250 194.035156 194.035156 250 125 250 C 55.964844 250 0 194.035156 0 125 C 0 55.964844 55.964844 0 125 0 C 194.035156 0 250 55.964844 250 125 Z M 250 125 "/>
<g style="fill:rgb(7.058824%,10.196079%,18.431373%);fill-opacity:1;">
  <use xlink:href="#glyph0-1" x="56.929688" y="151.787388"/>
  <use xlink:href="#glyph0-2" x="108.722377" y="151.787388"/>
  <use xlink:href="#glyph0-3" x="151.586496" y="151.787388"/>
</g>
</g>
</svg>
